public/icons/opensource.svg

<svg width="143" height="138" viewBox="0 0 143 138" fill="none" xmlns="http://www.w3.org/2000/svg">
<g clip-path="url(#clip0)">
<path d="M80.0673 93.6088C92.4245 88.9093 98.6031 75.0649 93.8259 62.7446C89.1123 50.4243 75.2263 44.2641 62.8691 49.0271C50.5118 53.7266 44.3332 67.5711 49.1105 79.8914C51.531 86.2421 56.5631 91.1956 62.8691 93.6088L46.7537 135.523C11.2107 121.933 -6.56077 82.1141 7.07041 46.6139C20.7016 11.1137 60.6397 -6.54119 96.1827 7.04923C131.726 20.6397 149.497 60.4584 135.866 95.9586C128.859 114.185 114.464 128.538 96.1827 135.523L80.0673 93.6088Z" fill="#1ED760"/>
<path d="M96.1816 138C95.1625 138 94.2707 137.365 93.8885 136.413L77.7732 94.4983C77.2636 93.2282 77.9006 91.831 79.1745 91.323C84.5251 89.2908 88.7928 85.2898 91.0859 80.0188C93.4427 74.8112 93.57 68.9686 91.5317 63.6341C87.264 52.5839 74.8431 47.0588 63.7598 51.3138C52.6765 55.5687 47.1349 67.9525 51.4026 79.0027C53.5683 84.6548 58.0908 89.1637 63.7598 91.323C65.0337 91.831 65.6707 93.2282 65.1611 94.4983L49.0458 136.413C48.5362 137.683 47.1349 138.318 45.8609 137.81C28.0257 131.015 13.9487 117.678 6.17762 100.277C-1.59342 82.8766 -2.103 63.507 4.77629 45.7252C11.5919 28.0068 24.9683 13.9718 42.4213 6.22402C59.8743 -1.52379 79.3019 -2.03185 97.0734 4.76337C114.909 11.5586 128.986 24.895 136.757 42.2958C144.528 59.6966 145.037 79.0662 138.158 96.8481C130.897 115.646 115.928 130.634 97.0734 137.873C96.8186 137.937 96.5001 138 96.1816 138ZM71.4672 4.95389C62.2948 4.95389 53.0587 6.85909 44.4596 10.733C28.2168 17.9728 15.7959 30.9916 9.42618 47.5669C3.05647 64.1421 3.50234 82.1145 10.7638 98.3087C17.6431 113.741 29.8729 125.744 45.415 132.348L59.8106 94.9429C53.8868 92.0215 49.2369 86.941 46.8801 80.7809C41.6569 67.1904 48.4725 51.9488 62.1037 46.7413C75.7349 41.5337 91.0222 48.329 96.2453 61.9194C98.7932 68.4606 98.6021 75.6368 95.7358 82.051C93.1879 87.7031 88.8565 92.2121 83.3148 94.9429L97.7104 132.348C114.208 125.299 127.266 111.899 133.699 95.1334C140.069 78.6216 139.623 60.5857 132.362 44.3915C125.164 28.1973 112.042 15.8135 95.4173 9.46286C87.5825 6.41454 79.493 4.95389 71.4672 4.95389ZM132.935 128.093C132.043 128.982 131.597 130.062 131.597 131.332C131.597 132.602 132.043 133.745 132.935 134.635C133.827 135.524 134.909 135.968 136.183 135.968C137.457 135.968 138.54 135.524 139.432 134.571C140.324 133.682 140.77 132.539 140.77 131.269C140.77 129.999 140.324 128.919 139.432 128.03C138.54 127.077 137.457 126.633 136.183 126.633C134.909 126.696 133.827 127.141 132.935 128.093ZM140.133 135.333C139.05 136.413 137.712 136.921 136.183 136.921C134.591 136.921 133.253 136.413 132.17 135.333C131.088 134.253 130.578 132.92 130.578 131.332C130.578 129.681 131.151 128.347 132.362 127.268C133.444 126.252 134.718 125.744 136.247 125.744C137.776 125.744 139.113 126.315 140.196 127.395C141.279 128.474 141.852 129.808 141.852 131.332C141.852 132.92 141.279 134.253 140.133 135.333ZM136.757 129.427C136.502 129.363 136.247 129.3 135.801 129.3H135.419V131.078H136.056C136.438 131.078 136.757 131.015 136.948 130.824C137.139 130.697 137.266 130.443 137.266 130.062C137.266 129.808 137.075 129.554 136.757 129.427ZM133.763 134.444V128.22C134.145 128.22 134.718 128.22 135.483 128.22C136.247 128.22 136.693 128.22 136.757 128.22C137.266 128.284 137.648 128.347 137.967 128.538C138.54 128.855 138.795 129.363 138.795 129.999C138.795 130.507 138.668 130.888 138.349 131.142C138.031 131.396 137.712 131.523 137.266 131.586C137.648 131.65 137.967 131.777 138.158 131.967C138.54 132.285 138.731 132.729 138.731 133.364V133.936C138.731 133.999 138.731 134.063 138.731 134.126C138.731 134.19 138.731 134.253 138.795 134.317L138.859 134.508H137.33C137.266 134.317 137.266 133.999 137.203 133.618C137.203 133.237 137.139 132.983 137.075 132.856C137.011 132.666 136.82 132.475 136.629 132.412C136.502 132.348 136.311 132.348 136.056 132.285H135.674H135.355V134.508L133.763 134.444Z" fill="#1D531D"/>
</g>
<defs>
<clipPath id="clip0">
<rect width="143" height="138" fill="white"/>
</clipPath>
</defs>
</svg>

<?xml version="1.0" encoding="utf-8"?>
<!-- Generator: Adobe Illustrator 23.0.1, SVG Export Plug-In . SVG Version: 6.00 Build 0)  -->
<svg version="1.1" id="Layer_1" xmlns="http://www.w3.org/2000/svg" xmlns:xlink="http://www.w3.org/1999/xlink" x="0px" y="0px"
	 viewBox="0 0 143 138" style="enable-background:new 0 0 143 138;" xml:space="preserve">
<style type="text/css">
	.st0{clip-path:url(#SVGID_2_);}
	.st1{fill:#1ED760;}
	.st2{fill:#1D531D;}
</style>
<g>
	<defs>
		<rect id="SVGID_1_" y="0" width="143" height="138"/>
	</defs>
	<clipPath id="SVGID_2_">
		<use xlink:href="#SVGID_1_"  style="overflow:visible;"/>
	</clipPath>
	<g class="st0">
		<path class="st1" d="M80.1,93.6c12.4-4.7,18.5-18.5,13.8-30.9c-4.7-12.3-18.6-18.5-31-13.7c-12.4,4.7-18.5,18.5-13.8,30.9
			c2.4,6.4,7.5,11.3,13.8,13.7l-16.1,41.9C11.2,121.9-6.6,82.1,7.1,46.6S60.6-6.5,96.2,7c35.5,13.6,53.3,53.4,39.7,88.9
			c-7,18.2-21.4,32.6-39.7,39.6L80.1,93.6z"/>
		<path class="st2" d="M96.2,138c-1,0-1.9-0.6-2.3-1.6L77.8,94.5c-0.5-1.3,0.1-2.7,1.4-3.2c5.4-2,9.6-6,11.9-11.3
			c2.4-5.2,2.5-11.1,0.4-16.4c-4.3-11.1-16.7-16.6-27.8-12.3C52.7,55.6,47.1,68,51.4,79c2.2,5.7,6.7,10.2,12.4,12.3
			c1.3,0.5,1.9,1.9,1.4,3.2L49,136.4c-0.5,1.3-1.9,1.9-3.2,1.4C28,131,13.9,117.7,6.2,100.3c-7.8-17.4-8.3-36.8-1.4-54.6
			C11.6,28,25,14,42.4,6.2C59.9-1.5,79.3-2,97.1,4.8c17.8,6.8,31.9,20.1,39.7,37.5c7.8,17.4,8.3,36.8,1.4,54.6
			c-7.3,18.8-22.2,33.8-41.1,41C96.8,137.9,96.5,138,96.2,138z M71.5,5c-9.2,0-18.4,1.9-27,5.8C28.2,18,15.8,31,9.4,47.6
			c-6.4,16.6-5.9,34.5,1.3,50.7c6.9,15.4,19.1,27.4,34.7,34l14.4-37.4c-5.9-2.9-10.6-8-12.9-14.2c-5.2-13.6,1.6-28.8,15.2-34
			c13.6-5.2,28.9,1.6,34.1,15.2c2.5,6.5,2.4,13.7-0.5,20.1c-2.5,5.7-6.9,10.2-12.4,12.9l14.4,37.4c16.5-7,29.6-20.4,36-37.2
			c6.4-16.5,5.9-34.5-1.3-50.7C125.2,28.2,112,15.8,95.4,9.5C87.6,6.4,79.5,5,71.5,5z"/>
	</g>
</g>
</svg>
